!!!OTL-incipit: LIEBEN BRUEDER WO KOMMT IHR HER
!!!ARE: Europa, Mitteleuropa, Deutschland, Anclam
!!!SCT: Z0208
!!!TXL: @@DE
!!!YEM: Copyright 1995, estate of Helmut Schaffrath.
**kern	**text
*ICvox	*
!! Mixed meters:  3/4; 4/4
*M3/4	*
*k[f#c#g#]	*
*A:	*
=1	=1
!LO:TX:a:t=Mündlich. Jn Anclam gehört.	!
!LO:TX:a:t=Handwerksburſchenlied.	!
{8e	Lie-
8a	-ben
(8a	Brü-
16g#L	.
16aJ	.
16bL)	-der,
16aJ	.
16g#L	wo
16f#J	.
=2	=2
8f#	kommt
8f#	ihr
4e	her?
4r}	.
=3	=3
{8a	Ei-
8cc#	-ne
8cc#	Reiſ-
16bL	.
16cc#J	.
8dd	.
8b	-von
=4	=4
8b/	un-
8a	-ge-
4a	-fähr.
4r}	.
=5||	=5||
*M4/4	*
*met(c)	*
{4e	Seyd
4e	will-
4e	-kom-
4a	-men,
=6	=6
4f#	ſetʒt
4f#	euch
4f#	nie-
4b/}	-der,
=7	=7
{4g#	ru-
4g#	-het
4g#	eu-
4b/	-re
=8	=8
4b/	mat-
4a	-ten
4a	Glie-
8a	-der,
8a}	und
=9	=9
*M3/4	*
{8e	trinkt
8a	ein
8a	Gläs-
16g#L	.
16aJ	.
16bL	.
16aJ	.
16g#L	-chen
16f#J	.
=10	=10
8f#	Brannte-
8f#	.
4e	-wein,
4r}	.
=11	=11
{8cc#	die-
8cc#	-ſes
8cc#	wird
16bL	.
16cc#J	.
8dd	euch
8g#	.
=12	=12
8b/	dienlich
8a	.
4a	ſeyn.
4r}	.
==	==
!!!AGN: Handwerker - Lied, Handwerks - Burschen
!!!ONB: ESAC (Essen Associative Code) Database: ZUCCAL
!!!AMT: irregular
!!!AIN: vox
!!!EED: Helmut Schaffrath
!!!EEV: 1.0
!!!GTL: III. Soldaten-, Jaeger-, Schiffer-, Fuhrmanns- und Handwerks-Lieder.
!!!URL-scan: https://www.digitale-sammlungen.de/de/view/bsb11160571?page=387
!!!ENC: Anna Maria Matuszewska
!!!EEV: 2025/01/29
*-	*-
